X: 202
T: Shier yue huadiao
%%abc-version 2.0
%%abcx-abcm2ps-target-version 5.9.1 (29 Sep 2008)
%%abc-creator hum2abc beta
%%abcx-conversion-date 2013/10/02 07:52:29
%%abc-edited-by Helmut Schaffrath
%%humdrum-veritas 2913698797
%%humdrum-veritas-data 99103231
%%continueall 1
%%barnumbers 0
L: 1/16
M: 3/4
K: Bb
b2 b gf4 [I:setbarnb 1]| 
g b g fd4 | 
d' f' d' c' d' f' d' c' | 
b a g2 f3 g | 
b2 g f b2 b2 | 
g2 d'2 g2 f2 | 
b2 g f d2 c2 | 
B4B4 | 
b4c' f' a2 | 
g2 g2f4 | 
b2 g fg4 | 
e2 d2 c2 z2 | 
b12- | 
[M:2/4]b2 d'2 c'2 d'2 | 
b2 c' d'b4 | 
g b g fg4 | 
e2d4c d | 
B8 |]  



